images/zhuyin/06.svg

<svg width="50" height="50" viewBox="0 0 50 50" fill="none" xmlns="http://www.w3.org/2000/svg">
<path d="M24.4375 15.3359C24.75 15.3359 25.2109 15.5078 25.8203 15.8516C26.4609 16.2578 26.7812 16.5781 26.7812 16.8125C26.7812 16.8906 26.6484 17.125 26.3828 17.5156C26.0703 17.8906 25.8047 18.5859 25.5859 19.6016C25.3672 20.6016 25.0781 21.6641 24.7188 22.7891C27.8125 22.2266 29.6562 21.8281 30.25 21.5938C30.625 21.4844 30.9375 21.4297 31.1875 21.4297C31.5156 21.4297 31.9922 21.6016 32.6172 21.9453C33.2266 22.3203 33.5312 22.6094 33.5312 22.8125C33.5312 22.9688 33.4062 23.0625 33.1562 23.0938H32.7812C31.1719 23.1875 29.8125 23.3516 28.7031 23.5859L24.1562 24.3359C23.9219 24.9922 23.6562 25.6562 23.3594 26.3281C22.5781 28.1562 21.9297 29.5234 21.4141 30.4297C21.1172 30.9609 20.9688 31.3594 20.9688 31.625C20.9688 31.8125 21.0938 31.9062 21.3438 31.9062C21.5938 31.9062 22.8125 31.5938 25 30.9688C26.8281 30.4844 28.2344 30.0625 29.2188 29.7031C28.6562 28.8438 28.125 28.1094 27.625 27.5C27.375 27.1875 27.25 27 27.25 26.9375V26.8438C27.3594 26.8438 27.6953 26.9766 28.2578 27.2422C29.3203 27.7422 30.3594 28.4453 31.375 29.3516C32.1406 30.0547 32.5234 30.9375 32.5234 32C32.5234 32.375 32.4375 32.6875 32.2656 32.9375C32.1562 33.125 32.0156 33.2188 31.8438 33.2188C31.5 33.2188 31.1797 32.9375 30.8828 32.375C30.5391 31.7812 30.2031 31.2266 29.875 30.7109C26.6875 31.4297 23.7969 32.4219 21.2031 33.6875C20.5312 34 20.1094 34.1562 19.9375 34.1562C19.7656 34.1562 19.4375 33.9297 18.9531 33.4766C18.5469 33.0234 18.3438 32.7188 18.3438 32.5625C18.3438 32.3125 18.6016 31.8203 19.1172 31.0859C20.1328 29.7266 21.2031 27.5781 22.3281 24.6406L20.9453 24.875C20.0703 25 19.4141 25.1719 18.9766 25.3906C18.5078 25.5469 18.2031 25.625 18.0625 25.625C17.9219 25.625 17.5938 25.4141 17.0781 24.9922C16.6094 24.6016 16.375 24.3438 16.375 24.2188C16.375 23.9688 16.5312 23.8438 16.8438 23.8438H17.5234C18.3984 23.8438 20.1953 23.6016 22.9141 23.1172C23.8047 20.6484 24.25 18.5781 24.25 16.9062C24.25 16.5469 24.1875 16.2969 24.0625 16.1562V15.7812C24.0625 15.4844 24.1875 15.3359 24.4375 15.3359Z" fill="#333333"/>
<path d="M25.8203 15.8516L26.0881 15.4293L26.0772 15.4224L26.066 15.4161L25.8203 15.8516ZM26.3828 17.5156L26.7669 17.8357L26.7825 17.817L26.7963 17.7968L26.3828 17.5156ZM25.5859 19.6016L26.0744 19.7084L26.0747 19.7068L25.5859 19.6016ZM24.7188 22.7891L24.2425 22.6369L23.9891 23.4299L24.8082 23.281L24.7188 22.7891ZM30.25 21.5938L30.11 21.1137L30.0879 21.1202L30.0664 21.1287L30.25 21.5938ZM32.6172 21.9453L32.8792 21.5195L32.8688 21.5131L32.8581 21.5072L32.6172 21.9453ZM33.1562 23.0938V23.5938H33.1874L33.2183 23.5899L33.1562 23.0938ZM32.7812 23.0938V22.5938H32.7667L32.7522 22.5946L32.7812 23.0938ZM28.7031 23.5859L28.7845 24.0793L28.7955 24.0775L28.8065 24.0751L28.7031 23.5859ZM24.1562 24.3359L24.0749 23.8426L23.7844 23.8905L23.6854 24.1678L24.1562 24.3359ZM23.3594 26.3281L22.902 26.126L22.8996 26.1316L23.3594 26.3281ZM21.4141 30.4297L20.9795 30.1824L20.9776 30.1858L21.4141 30.4297ZM25 30.9688L24.8719 30.4853L24.8626 30.488L25 30.9688ZM29.2188 29.7031L29.3902 30.1728L29.9823 29.9567L29.6371 29.4293L29.2188 29.7031ZM27.625 27.5L27.2345 27.8124L27.2385 27.8172L27.625 27.5ZM27.25 26.8438V26.3438H26.75V26.8438H27.25ZM28.2578 27.2422L28.0443 27.6943L28.0449 27.6946L28.2578 27.2422ZM31.375 29.3516L31.7132 28.9833L31.7079 28.9785L31.375 29.3516ZM32.2656 32.9375L31.8536 32.6542L31.8431 32.6695L31.8337 32.6856L32.2656 32.9375ZM30.8828 32.375L31.325 32.1416L31.3204 32.133L31.3155 32.1245L30.8828 32.375ZM29.875 30.7109L30.2968 30.4425L30.108 30.1458L29.765 30.2232L29.875 30.7109ZM21.2031 33.6875L21.414 34.1409L21.4224 34.1369L21.2031 33.6875ZM18.9531 33.4766L18.5808 33.8103L18.5955 33.8267L18.6115 33.8417L18.9531 33.4766ZM19.1172 31.0859L18.7166 30.7867L18.7122 30.7926L18.708 30.7986L19.1172 31.0859ZM22.3281 24.6406L22.7951 24.8194L23.1084 24.0012L22.2446 24.1477L22.3281 24.6406ZM20.9453 24.875L21.016 25.3701L21.0289 25.368L20.9453 24.875ZM18.9766 25.3906L19.1347 25.865L19.1684 25.8537L19.2002 25.8378L18.9766 25.3906ZM17.0781 24.9922L16.758 25.3763L16.7615 25.3792L17.0781 24.9922ZM22.9141 23.1172L23.0018 23.6094L23.2863 23.5587L23.3844 23.2869L22.9141 23.1172ZM24.0625 16.1562H23.5625V16.3463L23.6888 16.4884L24.0625 16.1562ZM24.4375 15.8359C24.6082 15.8359 24.9688 15.9453 25.5747 16.2871L26.066 15.4161C25.4531 15.0703 24.8918 14.8359 24.4375 14.8359V15.8359ZM25.5525 16.2738C25.8596 16.4685 26.0648 16.6274 26.1875 16.75C26.331 16.8936 26.2812 16.9072 26.2812 16.8125H27.2812C27.2812 16.4834 27.0713 16.2197 26.8946 16.0429C26.6969 15.8452 26.4216 15.6408 26.0881 15.4293L25.5525 16.2738ZM26.2812 16.8125C26.2812 16.758 26.2917 16.7207 26.294 16.7128C26.2973 16.7012 26.2992 16.6977 26.2962 16.7048C26.29 16.7194 26.2752 16.7499 26.2466 16.8004C26.1901 16.9001 26.0993 17.0434 25.9693 17.2345L26.7963 17.7968C26.932 17.5972 27.0404 17.428 27.1167 17.2934C27.1545 17.2266 27.1895 17.1595 27.2165 17.096C27.2357 17.0507 27.2812 16.9409 27.2812 16.8125H26.2812ZM25.9987 17.1955C25.6026 17.6709 25.3178 18.4717 25.0971 19.4963L26.0747 19.7068C26.2915 18.7002 26.538 18.1104 26.7669 17.8357L25.9987 17.1955ZM25.0975 19.4947C24.8825 20.4773 24.5978 21.5246 24.2425 22.6369L25.195 22.9412C25.5585 21.8035 25.8518 20.7258 26.0744 19.7084L25.0975 19.4947ZM24.8082 23.281C26.3574 22.9993 27.5979 22.758 28.5275 22.5571C29.443 22.3592 30.0925 22.1935 30.4336 22.0588L30.0664 21.1287C29.8138 21.2284 29.2445 21.3791 28.3163 21.5796C27.4021 21.7772 26.1738 22.0163 24.6293 22.2971L24.8082 23.281ZM30.39 22.0738C30.742 21.9711 31.0037 21.9297 31.1875 21.9297V20.9297C30.8713 20.9297 30.508 20.9977 30.11 21.1137L30.39 22.0738ZM31.1875 21.9297C31.3783 21.9297 31.7575 22.0431 32.3762 22.3834L32.8581 21.5072C32.2269 21.16 31.653 20.9297 31.1875 20.9297V21.9297ZM32.3551 22.3711C32.6478 22.5513 32.8428 22.6962 32.9586 22.8061C33.0163 22.8608 33.0412 22.8946 33.049 22.9072C33.0579 22.9216 33.0312 22.8862 33.0312 22.8125H34.0312C34.0312 22.6373 33.9665 22.4895 33.8993 22.3809C33.8309 22.2705 33.7415 22.1704 33.6469 22.0806C33.458 21.9014 33.1959 21.7144 32.8792 21.5195L32.3551 22.3711ZM33.0312 22.8125C33.0312 22.7832 33.0376 22.7404 33.0606 22.6944C33.0836 22.6483 33.1141 22.6176 33.1375 22.6C33.1589 22.584 33.171 22.5813 33.1622 22.5843C33.1537 22.5871 33.1325 22.5928 33.0942 22.5976L33.2183 23.5899C33.3821 23.5694 33.5751 23.5218 33.7375 23.4C33.9259 23.2587 34.0312 23.048 34.0312 22.8125H33.0312ZM33.1562 22.5938H32.7812V23.5938H33.1562V22.5938ZM32.7522 22.5946C31.1273 22.6892 29.7414 22.8555 28.5998 23.0967L28.8065 24.0751C29.8836 23.8476 31.2164 23.6858 32.8103 23.5929L32.7522 22.5946ZM28.6218 23.0926L24.0749 23.8426L24.2376 24.8293L28.7845 24.0793L28.6218 23.0926ZM23.6854 24.1678C23.4553 24.812 23.1942 25.4647 22.902 26.126L23.8167 26.5302C24.1183 25.8478 24.3884 25.1724 24.6271 24.5041L23.6854 24.1678ZM22.8996 26.1316C22.1204 27.9549 21.4808 29.3013 20.9795 30.1824L21.8486 30.6769C22.3786 29.7456 23.0358 28.3576 23.8192 26.5246L22.8996 26.1316ZM20.9776 30.1858C20.6799 30.7185 20.4688 31.2177 20.4688 31.625H21.4688C21.4688 31.5011 21.5545 31.2034 21.8505 30.6736L20.9776 30.1858ZM20.4688 31.625C20.4688 31.8407 20.5483 32.0753 20.7625 32.2359C20.9497 32.3763 21.1707 32.4062 21.3438 32.4062V31.4062C21.3109 31.4062 21.2986 31.403 21.301 31.4036C21.3039 31.4043 21.3294 31.4111 21.3625 31.4359C21.3984 31.4629 21.4295 31.5009 21.4491 31.545C21.4674 31.5861 21.4688 31.6169 21.4688 31.625H20.4688ZM21.3438 32.4062C21.4677 32.4062 21.6422 32.3739 21.8169 32.3367C22.0103 32.2956 22.2619 32.2351 22.5695 32.1562C23.1855 31.9983 24.0421 31.7624 25.1374 31.4495L24.8626 30.488C23.7704 30.8001 22.9239 31.033 22.3211 31.1875C22.0193 31.2649 21.7827 31.3216 21.6088 31.3586C21.5218 31.3771 21.4543 31.3899 21.4045 31.3978C21.3488 31.4066 21.3342 31.4062 21.3438 31.4062V32.4062ZM25.1281 31.4521C26.9612 30.9664 28.3846 30.5399 29.3902 30.1728L29.0473 29.2334C28.0842 29.5851 26.695 30.0024 24.8719 30.4854L25.1281 31.4521ZM29.6371 29.4293C29.0675 28.5591 28.5257 27.8095 28.0115 27.1828L27.2385 27.8172C27.7243 28.4093 28.245 29.1284 28.8004 29.977L29.6371 29.4293ZM28.0154 27.1877C27.8937 27.0355 27.8104 26.9236 27.7598 26.8476C27.734 26.809 27.7232 26.7892 27.7207 26.7842C27.7195 26.7818 27.7243 26.7909 27.7302 26.8087C27.7346 26.8219 27.75 26.8697 27.75 26.9375H26.75C26.75 27.0805 26.8086 27.1963 26.8262 27.2314C26.855 27.2889 26.891 27.3473 26.9277 27.4024C27.0021 27.5139 27.1063 27.652 27.2346 27.8123L28.0154 27.1877ZM27.75 26.9375V26.8438H26.75V26.9375H27.75ZM27.25 27.3438C27.2 27.3438 27.1824 27.3331 27.2316 27.3478C27.2681 27.3587 27.3231 27.3779 27.4002 27.4083C27.5535 27.469 27.7669 27.5633 28.0443 27.6943L28.4713 26.7901C28.1862 26.6554 27.9504 26.5506 27.7678 26.4784C27.6769 26.4424 27.5923 26.4118 27.5174 26.3895C27.4553 26.371 27.3547 26.3438 27.25 26.3438V27.3438ZM28.0449 27.6946C29.0575 28.1711 30.0569 28.8455 31.0421 29.7246L31.7079 28.9785C30.6619 28.0451 29.5831 27.3133 28.4707 26.7898L28.0449 27.6946ZM31.0368 29.7198C31.6968 30.3259 32.0234 31.074 32.0234 32H33.0234C33.0234 30.801 32.5845 29.7835 31.7132 28.9833L31.0368 29.7198ZM32.0234 32C32.0234 32.2979 31.9559 32.5054 31.8536 32.6542L32.6776 33.2208C32.9191 32.8696 33.0234 32.4521 33.0234 32H32.0234ZM31.8337 32.6856C31.8069 32.7316 31.7924 32.738 31.8008 32.7324C31.8053 32.7294 31.8131 32.7253 31.8231 32.7223C31.8331 32.7193 31.8407 32.7188 31.8438 32.7188V33.7188C32.2417 33.7188 32.5258 33.4838 32.6975 33.1894L31.8337 32.6856ZM31.8438 32.7188C31.8029 32.7188 31.6092 32.68 31.325 32.1416L30.4406 32.6084C30.7502 33.195 31.1971 33.7188 31.8438 33.7188V32.7188ZM31.3155 32.1245C30.9687 31.5254 30.6291 30.9647 30.2968 30.4425L29.4532 30.9794C29.7771 31.4884 30.1094 32.0371 30.4501 32.6255L31.3155 32.1245ZM29.765 30.2232C26.5446 30.9494 23.6167 31.9535 20.9839 33.2381L21.4224 34.1369C23.9771 32.8903 26.8304 31.91 29.985 31.1987L29.765 30.2232ZM20.9923 33.2341C20.6618 33.3878 20.4021 33.4987 20.2092 33.5702C19.9917 33.6507 19.9221 33.6562 19.9375 33.6562V34.6562C20.1247 34.6562 20.352 34.5837 20.5565 34.5079C20.7854 34.4231 21.0726 34.2997 21.414 34.1409L20.9923 33.2341ZM19.9375 33.6562C19.9956 33.6562 20.0177 33.6728 19.9857 33.6583C19.9595 33.6465 19.914 33.6214 19.8466 33.5749C19.7117 33.4817 19.529 33.3306 19.2947 33.1114L18.6115 33.8417C18.8616 34.0756 19.0852 34.2644 19.2784 34.3978C19.375 34.4645 19.4741 34.5244 19.5729 34.5692C19.6659 34.6113 19.7934 34.6562 19.9375 34.6562V33.6562ZM19.3254 33.1428C19.1293 32.924 18.9947 32.7547 18.9121 32.6309C18.8708 32.5689 18.8492 32.5282 18.8394 32.5059C18.8269 32.4775 18.8438 32.5025 18.8438 32.5625H17.8438C17.8438 32.7006 17.886 32.8223 17.9243 32.9091C17.9652 33.0021 18.0198 33.0951 18.0801 33.1856C18.2006 33.3664 18.3707 33.576 18.5808 33.8103L19.3254 33.1428ZM18.8438 32.5625C18.8438 32.57 18.8534 32.4796 18.98 32.2379C19.0947 32.0189 19.2745 31.7321 19.5264 31.3733L18.708 30.7986C18.4443 31.1742 18.2373 31.5006 18.0942 31.7739C17.963 32.0243 17.8438 32.305 17.8438 32.5625H18.8438ZM19.5177 31.3852C20.5751 29.9699 21.6651 27.77 22.7951 24.8194L21.8612 24.4618C20.7412 27.3863 19.6905 29.4832 18.7166 30.7867L19.5177 31.3852ZM22.2446 24.1477L20.8618 24.382L21.0289 25.368L22.4117 25.1336L22.2446 24.1477ZM20.8746 24.38C19.982 24.5075 19.2626 24.6886 18.753 24.9434L19.2002 25.8378C19.5655 25.6552 20.1586 25.4925 21.016 25.37L20.8746 24.38ZM18.8184 24.9163C18.5897 24.9925 18.4087 25.0471 18.2723 25.0821C18.2042 25.0995 18.1515 25.111 18.1123 25.1179C18.0703 25.1253 18.0567 25.125 18.0625 25.125V26.125C18.2009 26.125 18.3651 26.0906 18.5207 26.0507C18.689 26.0076 18.8946 25.945 19.1347 25.865L18.8184 24.9163ZM18.0625 25.125C18.1346 25.125 18.1658 25.1469 18.1271 25.1295C18.0994 25.117 18.052 25.0917 17.9813 25.0462C17.8406 24.9557 17.6465 24.8112 17.3947 24.6052L16.7615 25.3792C17.0253 25.595 17.2531 25.7669 17.4406 25.8874C17.5339 25.9474 17.6272 26.0011 17.7167 26.0414C17.7951 26.0767 17.9201 26.125 18.0625 26.125V25.125ZM17.3982 24.6081C17.1705 24.4183 17.0151 24.2733 16.9208 24.1695C16.8731 24.1171 16.8519 24.087 16.8454 24.0763C16.8312 24.0531 16.875 24.1104 16.875 24.2188H15.875C15.875 24.3896 15.9481 24.526 15.9925 24.5985C16.0446 24.6836 16.1113 24.7657 16.1808 24.8422C16.3208 24.9962 16.517 25.1754 16.758 25.3763L17.3982 24.6081ZM16.875 24.2188C16.875 24.2075 16.8768 24.2206 16.8658 24.247C16.8536 24.2764 16.8321 24.3059 16.8045 24.3279C16.7793 24.3481 16.7619 24.3518 16.7675 24.3503C16.774 24.3486 16.7973 24.3438 16.8438 24.3438V23.3438C16.6341 23.3438 16.3843 23.3835 16.1798 23.5471C15.9541 23.7277 15.875 23.9834 15.875 24.2188H16.875ZM16.8438 24.3438H17.5234V23.3438H16.8438V24.3438ZM17.5234 24.3438C18.4505 24.3438 20.2921 24.0922 23.0018 23.6094L22.8264 22.6249C20.0986 23.1109 18.3463 23.3438 17.5234 23.3438V24.3438ZM23.3844 23.2869C24.2848 20.7911 24.75 18.6593 24.75 16.9062H23.75C23.75 18.497 23.3246 20.5058 22.4437 22.9475L23.3844 23.2869ZM24.75 16.9062C24.75 16.5217 24.6898 16.1093 24.4362 15.8241L23.6888 16.4884C23.6816 16.4803 23.6995 16.4963 23.7181 16.5705C23.7364 16.6437 23.75 16.7527 23.75 16.9062H24.75ZM24.5625 16.1562V15.7812H23.5625V16.1562H24.5625ZM24.5625 15.7812C24.5625 15.7615 24.5636 15.7468 24.5648 15.7366C24.5654 15.7316 24.566 15.7278 24.5665 15.7253C24.5667 15.724 24.567 15.7231 24.5671 15.7225C24.5672 15.7222 24.5672 15.7219 24.5673 15.7218C24.5673 15.7216 24.5673 15.7216 24.5673 15.7216C24.5673 15.7216 24.5613 15.7425 24.5387 15.7693C24.5145 15.798 24.4844 15.818 24.4575 15.8287C24.4336 15.8381 24.4234 15.8359 24.4375 15.8359V14.8359C24.2107 14.8359 23.9573 14.9073 23.7738 15.1252C23.6042 15.3266 23.5625 15.5747 23.5625 15.7812H24.5625Z" fill="#333333"/>
</svg>

<svg xmlns="http://www.w3.org/2000/svg" width="50" height="50" fill="none"><path fill="#333" d="M24.438 15.336c.312 0 .773.172 1.382.516.64.406.961.726.961.96 0 .079-.133.313-.398.704-.313.375-.578 1.07-.797 2.086-.219 1-.508 2.062-.867 3.187 3.093-.562 4.937-.96 5.531-1.195.375-.11.688-.164.938-.164.328 0 .804.172 1.43.515.609.375.913.664.913.867 0 .157-.125.25-.375.282h-.375c-1.61.093-2.968.258-4.078.492l-4.547.75c-.234.656-.5 1.32-.797 1.992-.78 1.828-1.43 3.195-1.945 4.102-.297.53-.445.93-.445 1.195 0 .188.125.281.375.281s1.468-.312 3.656-.937c1.828-.485 3.234-.907 4.219-1.266a25.645 25.645 0 0 0-1.594-2.203c-.25-.313-.375-.5-.375-.563v-.093c.11 0 .445.133 1.008.398 1.062.5 2.101 1.203 3.117 2.11.766.703 1.148 1.585 1.148 2.648 0 .375-.086.688-.257.938-.11.187-.25.28-.422.28-.344 0-.664-.28-.961-.843a46.497 46.497 0 0 0-1.008-1.664c-3.188.719-6.078 1.71-8.672 2.977-.672.312-1.094.468-1.265.468-.172 0-.5-.226-.985-.68-.406-.453-.61-.757-.61-.913 0-.25.259-.743.774-1.477 1.016-1.36 2.086-3.508 3.211-6.445l-1.383.234c-.875.125-1.53.297-1.968.516-.47.156-.774.234-.915.234-.14 0-.468-.21-.984-.633-.469-.39-.703-.648-.703-.773 0-.25.156-.375.469-.375h.68c.874 0 2.671-.242 5.39-.727.89-2.469 1.336-4.539 1.336-6.21 0-.36-.063-.61-.188-.75v-.376c0-.297.125-.445.375-.445Z"/><path fill="#333" d="m25.82 15.852.268-.423-.01-.007-.012-.006-.246.436Zm.563 1.664.384.32.015-.019.014-.02-.413-.281Zm-.797 2.086.488.106v-.001l-.488-.105Zm-.867 3.187-.477-.152-.253.793.82-.149-.09-.492Zm5.531-1.195-.14-.48-.022.006-.022.009.184.465Zm2.367.351.262-.425-.01-.007-.01-.006-.242.438Zm.54 1.149v.5h.03l.031-.004-.062-.496Zm-.376 0v-.5H32.752l.03.5Zm-4.078.492.082.493.01-.002.011-.002-.103-.49Zm-4.547.75-.081-.493-.29.047-.1.278.471.168Zm-.797 1.992-.457-.202-.002.006.46.196Zm-1.945 4.102-.434-.248-.002.004.436.244Zm3.586.539-.128-.484-.01.003.138.48Zm4.219-1.266.171.47.592-.216-.345-.528-.418.274ZM27.625 27.5l-.39.312.003.005.387-.317Zm-.375-.656v-.5h-.5v.5h.5Zm1.008.398-.214.452.214-.452Zm3.117 2.11.338-.369-.005-.005-.333.374Zm.89 3.585-.411-.283-.01.015-.01.017.432.252Zm-1.382-.562.442-.233-.005-.009-.005-.009-.432.251Zm-1.008-1.664.422-.268-.189-.297-.343.077.11.488Zm-8.672 2.977.211.453.008-.004-.219-.45Zm-2.25-.211-.372.333.015.017.015.015.342-.365Zm.164-2.391-.4-.3-.005.007-.004.006.41.287Zm3.211-6.445.467.178.313-.818-.863.147.083.493Zm-1.383.234.071.495.013-.002-.084-.493Zm-1.968.516.158.474.033-.011.032-.016-.223-.447Zm-1.899-.399-.32.384.004.003.316-.387Zm5.836-1.875.088.492.284-.05.098-.272-.47-.17Zm1.148-6.96h-.5v.19l.127.141.373-.332Zm.375-.321c.171 0 .532.11 1.138.451l.491-.87c-.613-.347-1.174-.581-1.628-.581v1Zm1.115.438c.308.194.513.353.636.476.143.144.093.157.093.063h1c0-.33-.21-.593-.386-.77a4.783 4.783 0 0 0-.807-.614l-.536.845Zm.73.538c0-.054.01-.091.012-.1l.002-.007a1.055 1.055 0 0 1-.05.095c-.056.1-.147.243-.277.434l.827.563c.136-.2.244-.369.32-.504.038-.066.073-.133.1-.197a.735.735 0 0 0 .065-.284h-1Zm-.283.383c-.396.476-.681 1.277-.902 2.301l.978.21c.216-1.006.463-1.596.692-1.87l-.768-.64Zm-.901 2.3c-.215.982-.5 2.03-.855 3.142l.952.304c.363-1.137.657-2.215.88-3.233l-.977-.213Zm-.29 3.786c1.55-.282 2.79-.523 3.72-.724.915-.198 1.565-.363 1.906-.498l-.368-.93c-.252.1-.822.25-1.75.45-.914.198-2.142.437-3.687.718l.18.984Zm5.582-1.207c.352-.103.614-.144.797-.144v-1c-.316 0-.679.068-1.077.184l.28.96Zm.797-.144c.191 0 .57.113 1.19.453l.481-.876c-.631-.347-1.205-.577-1.67-.577v1Zm1.168.441c.293.18.488.325.604.435a.588.588 0 0 1 .09.101c.009.015-.018-.02-.018-.095h1a.822.822 0 0 0-.132-.431 1.546 1.546 0 0 0-.252-.3 4.778 4.778 0 0 0-.768-.561l-.524.851Zm.676.442c0-.03.007-.073.03-.119a.269.269 0 0 1 .077-.094c.02-.016.033-.019.024-.016a.383.383 0 0 1-.068.014l.124.992c.164-.02.357-.068.52-.19a.722.722 0 0 0 .293-.587h-1Zm.125-.22h-.375v1h.375v-1Zm-.404.002c-1.625.094-3.01.26-4.152.502l.206.978c1.078-.227 2.41-.39 4.004-.482l-.058-.998Zm-4.13.498-4.547.75.163.986 4.547-.75-.163-.986Zm-4.937 1.075c-.23.644-.49 1.297-.783 1.958l.915.404a29.86 29.86 0 0 0 .81-2.026l-.942-.336Zm-.785 1.964c-.78 1.823-1.42 3.17-1.92 4.05l.869.495c.53-.931 1.187-2.32 1.97-4.152l-.92-.393Zm-1.922 4.054c-.298.532-.51 1.032-.51 1.439h1c0-.124.087-.422.383-.951l-.873-.488Zm-.51 1.439c0 .216.08.45.294.61.188.141.409.171.582.171v-1c-.033 0-.045-.003-.043-.002.003 0 .028.007.062.032a.28.28 0 0 1 .086.109c.018.041.02.072.02.08h-1Zm.876.781c.124 0 .298-.032.473-.07.193-.04.445-.1.753-.18.616-.158 1.472-.394 2.567-.706l-.274-.962a102.66 102.66 0 0 1-2.542.7c-.302.077-.538.134-.712.17a4.161 4.161 0 0 1-.205.04c-.055.009-.07.008-.06.008v1Zm3.784-.954c1.833-.486 3.257-.912 4.262-1.28l-.343-.939c-.963.352-2.352.77-4.175 1.252l.256.967Zm4.51-2.023c-.57-.87-1.112-1.62-1.627-2.246l-.773.634a25.111 25.111 0 0 1 1.562 2.16l.837-.548Zm-1.623-2.241a5.276 5.276 0 0 1-.255-.34.7.7 0 0 1-.04-.064.408.408 0 0 1 .03.153h-1c0 .143.059.26.076.294.029.058.065.116.102.171.074.112.178.25.307.41l.78-.624Zm-.265-.25v-.094h-1v.093h1Zm-.5.406c-.05 0-.068-.01-.018.004.036.01.091.03.168.06.154.061.367.155.644.286l.427-.904c-.285-.135-.52-.24-.703-.312a3.106 3.106 0 0 0-.25-.088.959.959 0 0 0-.268-.046v1Zm.795.35c1.012.477 2.012 1.152 2.997 2.03l.666-.745c-1.046-.934-2.125-1.666-3.237-2.19l-.426.906Zm2.992 2.026c.66.606.986 1.354.986 2.28h1c0-1.199-.439-2.216-1.31-3.017l-.676.737Zm.986 2.28c0 .298-.067.505-.17.654l.825.567c.241-.351.345-.769.345-1.221h-1Zm-.19.686c-.026.046-.04.052-.032.046a.086.086 0 0 1 .043-.013v1c.398 0 .682-.235.853-.53l-.863-.503Zm.01.033c-.04 0-.234-.039-.518-.577l-.884.466c.31.587.756 1.11 1.403 1.11v-1Zm-.527-.595a46.95 46.95 0 0 0-1.02-1.682l-.843.537c.324.51.656 1.058.997 1.647l.866-.502Zm-1.551-1.9c-3.22.725-6.148 1.73-8.781 3.014l.438.899c2.555-1.247 5.408-2.227 8.563-2.938l-.22-.976Zm-8.773 3.01c-.33.154-.59.265-.783.336-.217.08-.287.086-.271.086v1c.187 0 .414-.072.619-.148.228-.085.516-.208.857-.367l-.422-.907Zm-1.055.422c.059 0 .08.017.049.002a.963.963 0 0 1-.14-.083 5.182 5.182 0 0 1-.551-.464l-.684.73c.25.235.474.423.667.557.097.066.196.126.295.171.093.042.22.087.364.087v-1Zm-.612-.513a4.907 4.907 0 0 1-.413-.512.895.895 0 0 1-.073-.125c-.012-.029.005-.004.005.056h-1c0 .139.042.26.08.347.041.093.096.186.156.277.12.18.29.39.5.624l.745-.667Zm-.481-.58c0 .007.01-.083.136-.325.115-.22.294-.506.546-.865l-.818-.574c-.264.375-.47.702-.614.975-.131.25-.25.531-.25.788h1Zm.674-1.178c1.057-1.415 2.147-3.615 3.277-6.566l-.934-.357c-1.12 2.924-2.17 5.021-3.144 6.325l.8.598Zm2.727-7.237-1.383.234.167.986 1.383-.234-.167-.986Zm-1.37.232c-.893.128-1.612.309-2.122.563l.447.895c.366-.183.959-.346 1.816-.468l-.141-.99Zm-2.057.536c-.228.076-.41.131-.546.166-.068.017-.12.029-.16.036-.042.007-.055.007-.05.007v1c.139 0 .303-.034.459-.074.168-.043.374-.106.614-.186l-.317-.949Zm-.756.209c.073 0 .104.022.065.005a1.211 1.211 0 0 1-.146-.084 6.845 6.845 0 0 1-.586-.44l-.633.773c.263.216.491.388.679.508.093.06.186.114.276.154a.853.853 0 0 0 .346.084v-1Zm-.664-.517a5.039 5.039 0 0 1-.477-.439.717.717 0 0 1-.076-.093c-.014-.023.03.034.03.143h-1c0 .17.073.307.117.38.053.085.12.167.189.243.14.154.336.333.577.534l.64-.768Zm-.523-.39c0-.01.002.003-.01.029a.208.208 0 0 1-.06.08c-.026.021-.043.025-.038.023a.327.327 0 0 1 .077-.006v-1c-.21 0-.46.04-.664.203a.836.836 0 0 0-.305.672h1Zm-.031.126h.68v-1h-.68v1Zm.68 0c.927 0 2.768-.252 5.478-.735l-.176-.984c-2.727.486-4.48.719-5.303.719v1Zm5.86-1.057c.9-2.496 1.366-4.628 1.366-6.38h-1c0 1.59-.425 3.599-1.306 6.04l.94.34Zm1.366-6.38c0-.385-.06-.798-.314-1.083l-.747.664c-.007-.008.01.008.03.082.017.074.031.183.031.336h1Zm-.188-.75v-.376h-1v.375h1Zm0-.376a.384.384 0 0 1 .005-.056v-.003s-.006.02-.028.047a.211.211 0 0 1-.082.06c-.023.01-.034.007-.02.007v-1a.844.844 0 0 0-.663.29c-.17.2-.212.449-.212.655h1Z"/></svg>
